flaticon/army-badges/medal-18.svg

<svg xmlns="http://www.w3.org/2000/svg" width="32" height="32" viewBox="0 0 24 24">
    <path d="M 16.398438 6.800781 L 16.398438 2.800781 L 16.800781 2.800781 C 17.039062 2.800781 17.199219 2.640625 17.199219 2.398438 L 17.199219 0.398438 C 17.199219 0.160156 17.039062 0 16.800781 0 L 7.199219 0 C 6.960938 0 6.800781 0.160156 6.800781 0.398438 L 6.800781 2.398438 C 6.800781 2.640625 6.960938 2.800781 7.199219 2.800781 L 7.601562 2.800781 L 7.601562 9.199219 L 7.199219 9.199219 C 6.960938 9.199219 6.800781 9.359375 6.800781 9.601562 L 6.800781 11.601562 C 6.800781 11.839844 6.960938 12 7.199219 12 L 10.617188 12 C 10.480469 12.234375 10.398438 12.507812 10.398438 12.800781 C 10.398438 13.089844 10.480469 13.363281 10.617188 13.601562 L 9.601562 13.601562 C 9.359375 13.601562 9.199219 13.761719 9.199219 14 L 9.199219 16 L 7.199219 16 C 6.960938 16 6.800781 16.160156 6.800781 16.398438 L 6.800781 21.199219 C 6.800781 21.441406 6.960938 21.601562 7.199219 21.601562 L 9.199219 21.601562 L 9.199219 23.601562 C 9.199219 23.839844 9.359375 24 9.601562 24 L 14.398438 24 C 14.640625 24 14.800781 23.839844 14.800781 23.601562 L 14.800781 21.601562 L 16.800781 21.601562 C 17.039062 21.601562 17.199219 21.441406 17.199219 21.199219 L 17.199219 16.398438 C 17.199219 16.160156 17.039062 16 16.800781 16 L 14.800781 16 L 14.800781 14 C 14.800781 13.761719 14.640625 13.601562 14.398438 13.601562 L 13.382812 13.601562 C 13.519531 13.363281 13.601562 13.089844 13.601562 12.800781 C 13.601562 12.507812 13.519531 12.234375 13.382812 12 L 16.800781 12 C 17.039062 12 17.199219 11.839844 17.199219 11.601562 L 17.199219 9.601562 C 17.199219 9.359375 17.039062 9.199219 16.800781 9.199219 L 16.398438 9.199219 Z M 15.601562 4.800781 L 8.398438 4.800781 L 8.398438 4 L 15.601562 4 Z M 8.398438 5.601562 L 15.601562 5.601562 L 15.601562 6.398438 L 8.398438 6.398438 Z M 8.398438 7.199219 L 15.601562 7.199219 L 15.601562 8 L 8.398438 8 Z M 7.601562 0.800781 L 16.398438 0.800781 L 16.398438 2 L 16 2 L 16 1.601562 C 16 1.359375 15.839844 1.199219 15.601562 1.199219 L 8.398438 1.199219 C 8.160156 1.199219 8 1.359375 8 1.601562 L 8 2 L 7.601562 2 Z M 8.800781 2.398438 L 8.800781 2 L 15.199219 2 L 15.199219 2.398438 C 15.199219 2.640625 15.359375 2.800781 15.601562 2.800781 L 15.601562 3.199219 L 8.398438 3.199219 L 8.398438 2.800781 C 8.640625 2.800781 8.800781 2.640625 8.800781 2.398438 Z M 14.398438 16.800781 L 16.398438 16.800781 L 16.398438 20.800781 L 14.398438 20.800781 C 14.160156 20.800781 14 20.960938 14 21.199219 L 14 23.199219 L 10 23.199219 L 10 21.199219 C 10 20.960938 9.839844 20.800781 9.601562 20.800781 L 7.601562 20.800781 L 7.601562 16.800781 L 9.601562 16.800781 C 9.839844 16.800781 10 16.640625 10 16.398438 L 10 14.398438 L 14 14.398438 L 14 16.398438 C 14 16.640625 14.160156 16.800781 14.398438 16.800781 Z M 12.800781 12.800781 C 12.800781 13.238281 12.441406 13.601562 12 13.601562 C 11.558594 13.601562 11.199219 13.238281 11.199219 12.800781 C 11.199219 12.359375 11.558594 12 12 12 C 12.441406 12 12.800781 12.359375 12.800781 12.800781 Z M 16.398438 11.199219 L 7.601562 11.199219 L 7.601562 10 L 8 10 L 8 10.398438 C 8 10.640625 8.160156 10.800781 8.398438 10.800781 L 15.601562 10.800781 C 15.839844 10.800781 16 10.640625 16 10.398438 L 16 10 L 16.398438 10 Z M 15.199219 9.601562 L 15.199219 10 L 8.800781 10 L 8.800781 9.601562 C 8.800781 9.359375 8.640625 9.199219 8.398438 9.199219 L 8.398438 8.800781 L 15.601562 8.800781 L 15.601562 9.199219 C 15.359375 9.199219 15.199219 9.359375 15.199219 9.601562 Z M 15.199219 9.601562"/>
</svg>

<svg xmlns="http://www.w3.org/2000/svg" width="32" height="32" viewBox="0 0 24 24">
    <path d="M16.398 6.8v-4h.403c.238 0 .398-.16.398-.402v-2C17.2.16 17.04 0 16.801 0H7.199c-.238 0-.398.16-.398.398v2c0 .243.16.403.398.403h.403v6.398h-.403c-.238 0-.398.16-.398.403v2c0 .238.16.398.398.398h3.418a1.586 1.586 0 0 0-.219.8c0 .29.082.563.22.802H9.601c-.243 0-.403.16-.403.398v2h-2c-.238 0-.398.16-.398.398V21.2c0 .242.16.403.398.403h2v2c0 .238.16.398.403.398h4.796c.243 0 .403-.16.403-.398v-2h2c.238 0 .398-.16.398-.403v-4.8c0-.239-.16-.399-.398-.399h-2v-2c0-.238-.16-.398-.403-.398h-1.015c.137-.239.219-.512.219-.801 0-.293-.082-.567-.22-.801h3.419c.238 0 .398-.16.398-.398v-2c0-.243-.16-.403-.398-.403h-.403zm-.796-2H8.398V4h7.204zm-7.204.802h7.204v.796H8.398zm0 1.597h7.204V8H8.398zM7.602.801h8.796V2H16v-.398c0-.243-.16-.403-.398-.403H8.398C8.16 1.2 8 1.36 8 1.602V2h-.398zM8.8 2.398V2h6.398v.398c0 .243.16.403.403.403v.398H8.398v-.398c.243 0 .403-.16.403-.403zm5.597 14.403h2v4h-2c-.238 0-.398.16-.398.398v2h-4v-2c0-.238-.16-.398-.398-.398h-2v-4h2c.238 0 .398-.16.398-.403v-2h4v2c0 .243.16.403.398.403zm-1.597-4c0 .437-.36.8-.801.8a.804.804 0 0 1-.8-.8.802.802 0 0 1 1.6 0zm3.597-1.602H7.602V10H8v.398c0 .243.16.403.398.403h7.204c.238 0 .398-.16.398-.403V10h.398zM15.2 9.602V10H8.801v-.398c0-.243-.16-.403-.403-.403v-.398h7.204v.398c-.243 0-.403.16-.403.403zm0 0"/>
</svg>
